dotfiles/config/awesome/icons/tags/3.svg

<svg xmlns="http://www.w3.org/2000/svg" width="256" height="256" viewBox="0 0 400 486.154"><path d="M157.881 3.689c-1.723 2.202-10.525 20.619-19.561 40.926-29.945 67.3-91.574 187.195-113.571 220.943-25.719 39.459-26.498 44.672-8.525 57.038 15.337 10.552 34.95 31.173 47.073 49.492l8.544 12.911 40.675-40.591 40.674-40.591-1.628-17.955c-2.019-22.268 2.327-33.555 18.132-47.083l11.921-10.204-.807-113.518L180 1.538l-9.493-.926c-5.221-.509-10.902.875-12.626 3.077m68.786-1.638c-1.129 1.128-2.052 52.573-2.052 114.321V228.64l12.086 10.345c14.629 12.522 20.013 27.25 17.799 48.693l-1.653 16.022 40.733 40.65 40.733 40.649 8.676-13.11c11.809-17.845 34.158-41.344 46.683-49.085 16.551-10.229 14.576-22.201-9.854-59.727-20.679-31.763-83.07-153.478-111.984-218.462C247.747-.529 238.651-9.934 226.667 2.051m-6.345 327.763c-3.458 1.957-13.561 2.578-24.823 1.527l-18.991-1.774-44.03 44.108c-29.434 29.487-43.235 45.394-41.632 47.987 1.318 2.134 6.907 17.171 12.42 33.416l10.023 29.537h177.244l3.681-7.692c2.024-4.231 7.925-19.461 13.114-33.846l9.434-26.154-22.144-22.302-22.144-22.301-17.776 17.59c-16.239 16.07-17.775 18.748-17.775 31 0 21.688-21.091 38.343-41.933 33.112-37.571-9.43-33.124-64.175 5.567-68.536 12.254-1.381 16.575-3.996 31.467-19.045l17.263-17.445-11.567-11.241c-9.625-9.354-12.545-10.687-17.398-7.941" fill="#fff" fill-rule="evenodd"/></svg>

<?xml version="1.0" encoding="UTF-8" standalone="no"?>
<svg id="svg" xmlns="http://www.w3.org/2000/svg" xmlns:xlink="http://www.w3.org/1999/xlink" width="400" height="400" viewBox="0, 0, 400,486.15384615384613"><g id="svgg">
<path id="path0" d="M157.881 3.689 C 156.158 5.891,147.356 24.308,138.320 44.615 C 108.375 111.915,46.746 231.810,24.749 265.558 C -0.970 305.017,-1.749 310.230,16.224 322.596 C 31.561 333.148,51.174 353.769,63.297 372.088 L 71.841 384.999 112.516 344.408 L 153.190 303.817 151.562 285.862 C 149.543 263.594,153.889 252.307,169.694 238.779 L 181.615 228.575 180.808 115.057 L 180.000 1.538 170.507 0.612 C 165.286 0.103,159.605 1.487,157.881 3.689 M226.667 2.051 C 225.538 3.179,224.615 54.624,224.615 116.372 L 224.615 228.640 236.701 238.985 C 251.330 251.507,256.714 266.235,254.500 287.678 L 252.847 303.700 293.580 344.350 L 334.313 384.999 342.989 371.889 C 354.798 354.044,377.147 330.545,389.672 322.804 C 406.223 312.575,404.248 300.603,379.818 263.077 C 359.139 231.314,296.748 109.599,267.834 44.615 C 247.747 -0.529,238.651 -9.934,226.667 2.051 M220.322 329.814 C 216.864 331.771,206.761 332.392,195.499 331.341 L 176.508 329.567 132.478 373.675 C 103.044 403.162,89.243 419.069,90.846 421.662 C 92.164 423.796,97.753 438.833,103.266 455.078 L 113.289 484.615 201.911 484.615 L 290.533 484.615 294.214 476.923 C 296.238 472.692,302.139 457.462,307.328 443.077 L 316.762 416.923 294.618 394.621 L 272.474 372.320 254.698 389.910 C 238.459 405.980,236.923 408.658,236.923 420.910 C 236.923 442.598,215.832 459.253,194.990 454.022 C 157.419 444.592,161.866 389.847,200.557 385.486 C 212.811 384.105,217.132 381.490,232.024 366.441 L 249.287 348.996 237.720 337.755 C 228.095 328.401,225.175 327.068,220.322 329.814 " stroke="none" fill="#ffffff" fill-rule="evenodd"></path></g></svg>
